svg/camera_lock_open_outline.svg

<svg xmlns="http://www.w3.org/2000/svg" viewBox="0 0 24 24"><path d="M13 20H4c-1.1 0-2-.9-2-2V6c0-1.1.9-2 2-2h3.2L9 2h6l1.8 2H20c1.1 0 2 .9 2 2v5c-.6-.4-1.3-.8-2-.9V6h-4l-1.8-2H9.9L8 6H4v12h9zM12 7c-2.8 0-5 2.2-5 5s2.2 5 5 5c.5 0 .9-.1 1.4-.2.2-.4.5-.8.8-1v-1.2c0-.2 0-.4.1-.5-.6.6-1.4 1-2.3 1-1.7 0-3-1.3-3-3s1.3-3 3-3 3 1.3 3 3v.1c.4-.6 1.1-1.1 1.8-1.5C16.1 8.5 14.3 7 12 7m9.8 10h-4.3v-2.5c0-.8.7-1.3 1.5-1.3s1.5.5 1.5 1.3v.5h1.3v-.5c0-1.4-1.4-2.5-2.8-2.5s-2.8 1.1-2.8 2.5V17c-.6 0-1.2.6-1.2 1.2v3.5c0 .7.6 1.3 1.2 1.3h5.5c.7 0 1.3-.6 1.3-1.2v-3.5c0-.7-.6-1.3-1.2-1.3"/></svg>

<svg xmlns="http://www.w3.org/2000/svg" id="mdi-camera-lock-open-outline" viewBox="0 0 24 24"><path d="M13 20H4C2.9 20 2 19.1 2 18V6C2 4.9 2.9 4 4 4H7.2L9 2H15L16.8 4H20C21.1 4 22 4.9 22 6V11C21.4 10.6 20.7 10.2 20 10.1V6H16L14.2 4H9.9L8 6H4V18H13V20M12 7C9.2 7 7 9.2 7 12S9.2 17 12 17C12.5 17 12.9 16.9 13.4 16.8C13.6 16.4 13.9 16 14.2 15.8V14.6C14.2 14.4 14.2 14.2 14.3 14.1C13.7 14.7 12.9 15.1 12 15.1C10.3 15.1 9 13.8 9 12.1S10.3 9.1 12 9.1 15 10.4 15 12.1V12.2C15.4 11.6 16.1 11.1 16.8 10.7C16.1 8.5 14.3 7 12 7M21.8 17H17.5V14.5C17.5 13.7 18.2 13.2 19 13.2S20.5 13.7 20.5 14.5V15H21.8V14.5C21.8 13.1 20.4 12 19 12S16.2 13.1 16.2 14.5V17C15.6 17 15 17.6 15 18.2V21.7C15 22.4 15.6 23 16.2 23H21.7C22.4 23 23 22.4 23 21.8V18.3C23 17.6 22.4 17 21.8 17Z" /></svg>
